dist/images/icon/logo-footer.svg

<svg width="141" height="37" viewBox="0 0 141 37" fill="none" xmlns="http://www.w3.org/2000/svg">
<path d="M3.5776 24.0102H0.0287476V33.568H3.5776C6.18189 33.568 8.03053 31.4244 8.03053 28.7891C8.03053 26.1539 6.18189 24.0102 3.5776 24.0102ZM3.5776 32.8853H0.743915V24.6929H3.5776C5.80406 24.6929 7.32885 26.5226 7.32885 28.7891C7.32885 31.0557 5.80406 32.8853 3.5776 32.8853Z" fill="black"/>
<path d="M12.7339 26.5908C10.6694 26.5908 9.23906 28.1474 9.23906 30.1545C9.23906 32.2163 10.7099 33.7182 12.7879 33.7182C14.1238 33.7182 15.1763 33.1038 15.7295 32.1753L15.1358 31.8203C14.7445 32.544 13.9079 33.0628 12.8014 33.0628C11.2631 33.0628 10.1027 32.0524 9.94073 30.5095H16.0534C16.0534 30.4003 16.0669 30.2911 16.0669 30.1818C16.0669 28.3112 14.785 26.5908 12.7339 26.5908ZM12.7339 27.2462C14.0563 27.2462 15.2168 28.1747 15.3652 29.8405H9.94073C10.0757 28.3249 11.1956 27.2462 12.7339 27.2462Z" fill="black"/>
<path d="M17.8391 28.5297C17.8391 27.7105 18.5812 27.2462 19.4583 27.2462C20.2005 27.2462 20.9022 27.5739 21.1855 28.2839L21.7523 27.9562C21.3879 27.1233 20.5513 26.5908 19.4583 26.5908C18.082 26.5908 17.1644 27.451 17.1644 28.5297C17.1644 30.9874 21.253 29.9224 21.253 31.7794C21.253 32.6396 20.4569 33.0628 19.5123 33.0628C18.5003 33.0628 17.7716 32.5986 17.5287 31.8613L16.9485 32.2026C17.2724 33.0765 18.1629 33.7182 19.5123 33.7182C20.9561 33.7182 21.9277 32.899 21.9277 31.7794C21.9277 29.2807 17.8391 30.3593 17.8391 28.5297Z" fill="black"/>
<path d="M23.832 25.0889C24.1289 25.0889 24.3717 24.8431 24.3717 24.5427C24.3717 24.256 24.1289 24.0102 23.832 24.0102C23.5351 24.0102 23.2922 24.256 23.2922 24.5427C23.2922 24.8431 23.5351 25.0889 23.832 25.0889ZM23.4946 33.568H24.1693V26.741H23.4946V33.568Z" fill="black"/>
<path d="M32.24 26.741V28.3249C31.6867 27.2735 30.6477 26.5908 29.3388 26.5908C27.4092 26.5908 25.8439 28.1337 25.8439 30.1545C25.8439 32.1753 27.4092 33.7182 29.3388 33.7182C30.6477 33.7182 31.6867 33.0355 32.24 31.9842V33.2404C32.24 34.7969 31.2414 35.7937 29.5547 35.7937C28.0704 35.7937 27.3147 35.1929 26.9639 34.4692L26.3702 34.8106C26.856 35.8073 27.9759 36.4491 29.5547 36.4491C31.4168 36.4491 32.9146 35.2885 32.9146 33.2404V26.741H32.24ZM29.3793 33.0628C27.7735 33.0628 26.5186 31.7794 26.5186 30.1545C26.5186 28.5297 27.7735 27.2462 29.3793 27.2462C30.985 27.2462 32.24 28.5297 32.24 30.1545C32.24 31.7794 30.985 33.0628 29.3793 33.0628Z" fill="black"/>
<path d="M38.0886 26.5908C37.0496 26.5908 36.186 27.0278 35.6733 28.0382V26.741H34.9986V33.568H35.6733V29.9634C35.6733 28.1201 36.7123 27.2462 38.0347 27.2462C39.3031 27.2462 40.0182 28.0655 40.0182 29.3216V33.568H40.7064V29.3216C40.7064 27.6695 39.6944 26.5908 38.0886 26.5908Z" fill="black"/>
<path d="M53.6476 33.3086L52.3522 31.9296C52.7031 31.3288 52.9325 30.6188 53.0539 29.8678L52.4197 29.4991C52.3253 30.2501 52.1228 30.8919 51.853 31.3971L48.8979 28.2703C48.3176 27.6695 47.8723 27.1233 47.8723 26.3451C47.8723 25.2937 48.7089 24.5564 49.8289 24.5564C50.787 24.5564 51.5696 25.1162 51.853 26.0174L52.4467 25.6623C52.0419 24.5291 51.0029 23.86 49.8154 23.86C48.4121 23.86 47.1437 24.8021 47.1437 26.3724C47.1437 27.1779 47.4675 27.7378 47.8993 28.243C46.6714 28.7891 46.0237 29.8405 46.0237 31.0284C46.0237 32.6805 47.2381 33.7182 49.1003 33.7182C50.3552 33.7182 51.2862 33.254 51.9204 32.5167L53.0134 33.6773L53.6476 33.3086ZM49.0733 33.0219C47.6564 33.0219 46.7523 32.2709 46.7523 31.0147C46.7523 30.1409 47.2111 29.2261 48.3986 28.7755L51.4347 31.9978C50.8409 32.6805 50.0313 33.0219 49.0733 33.0219Z" fill="black"/>
<path d="M62.3359 24.0102H58.7871V33.568H62.3359C64.9402 33.568 66.7888 31.4244 66.7888 28.7891C66.7888 26.1539 64.9402 24.0102 62.3359 24.0102ZM62.3359 32.8853H59.5022V24.6929H62.3359C64.5624 24.6929 66.0872 26.5226 66.0872 28.7891C66.0872 31.0557 64.5624 32.8853 62.3359 32.8853Z" fill="black"/>
<path d="M71.4922 26.5908C69.4277 26.5908 67.9974 28.1474 67.9974 30.1545C67.9974 32.2163 69.4682 33.7182 71.5462 33.7182C72.8821 33.7182 73.9346 33.1038 74.4879 32.1753L73.8941 31.8203C73.5028 32.544 72.6662 33.0628 71.5597 33.0628C70.0214 33.0628 68.861 32.0524 68.699 30.5095H74.8117C74.8117 30.4003 74.8252 30.2911 74.8252 30.1818C74.8252 28.3112 73.5433 26.5908 71.4922 26.5908ZM71.4922 27.2462C72.8146 27.2462 73.9751 28.1747 74.1235 29.8405H68.699C68.834 28.3249 69.954 27.2462 71.4922 27.2462Z" fill="black"/>
<path d="M81.0908 26.741L78.5405 32.858L76.0037 26.741H75.275L78.1357 33.568H78.9588L81.806 26.741H81.0908Z" fill="black"/>
<path d="M85.803 26.5908C83.7384 26.5908 82.3081 28.1474 82.3081 30.1545C82.3081 32.2163 83.7789 33.7182 85.8569 33.7182C87.1928 33.7182 88.2453 33.1038 88.7986 32.1753L88.2048 31.8203C87.8135 32.544 86.9769 33.0628 85.8704 33.0628C84.3322 33.0628 83.1717 32.0524 83.0098 30.5095H89.1224C89.1224 30.4003 89.1359 30.2911 89.1359 30.1818C89.1359 28.3112 87.854 26.5908 85.803 26.5908ZM85.803 27.2462C87.1254 27.2462 88.2858 28.1747 88.4342 29.8405H83.0098C83.1447 28.3249 84.2647 27.2462 85.803 27.2462Z" fill="black"/>
<path d="M90.7129 33.568H91.3876V23.6006H90.7129V33.568Z" fill="black"/>
<path d="M96.557 33.7182C98.5136 33.7182 100.092 32.1753 100.092 30.1545C100.092 28.1337 98.5136 26.5908 96.557 26.5908C94.587 26.5908 93.0082 28.1337 93.0082 30.1545C93.0082 32.1753 94.587 33.7182 96.557 33.7182ZM96.557 33.0628C94.9513 33.0628 93.6964 31.7794 93.6964 30.1545C93.6964 28.5297 94.9513 27.2462 96.557 27.2462C98.1628 27.2462 99.4042 28.5297 99.4042 30.1545C99.4042 31.7794 98.1628 33.0628 96.557 33.0628Z" fill="black"/>
<path d="M105.292 26.5908C103.983 26.5908 102.944 27.2735 102.391 28.3249V26.741H101.716V36.2989H102.391V31.9842C102.944 33.0355 103.983 33.7182 105.292 33.7182C107.222 33.7182 108.787 32.1753 108.787 30.1545C108.787 28.1337 107.222 26.5908 105.292 26.5908ZM105.251 33.0628C103.646 33.0628 102.391 31.7794 102.391 30.1545C102.391 28.5297 103.646 27.2462 105.251 27.2462C106.857 27.2462 108.112 28.5297 108.112 30.1545C108.112 31.7794 106.857 33.0628 105.251 33.0628Z" fill="black"/>
<path d="M117.619 26.5908C116.715 26.5908 115.851 27.0278 115.365 27.9835C115.015 27.0824 114.245 26.5908 113.26 26.5908C112.397 26.5908 111.587 26.9731 111.088 27.9153V26.741H110.413V33.568H111.088V29.7586C111.088 28.0108 112.073 27.2462 113.179 27.2462C114.218 27.2462 114.907 27.9426 114.907 29.2397V33.568H115.581V29.7586C115.581 28.0108 116.472 27.2462 117.605 27.2462C118.658 27.2462 119.4 27.9426 119.4 29.2397V33.568H120.075V29.2397C120.075 27.533 119.049 26.5908 117.619 26.5908Z" fill="black"/>
<path d="M125.019 26.5908C122.955 26.5908 121.524 28.1474 121.524 30.1545C121.524 32.2163 122.995 33.7182 125.073 33.7182C126.409 33.7182 127.461 33.1038 128.015 32.1753L127.421 31.8203C127.03 32.544 126.193 33.0628 125.087 33.0628C123.548 33.0628 122.388 32.0524 122.226 30.5095H128.339C128.339 30.4003 128.352 30.2911 128.352 30.1818C128.352 28.3112 127.07 26.5908 125.019 26.5908ZM125.019 27.2462C126.341 27.2462 127.502 28.1747 127.65 29.8405H122.226C122.361 28.3249 123.481 27.2462 125.019 27.2462Z" fill="black"/>
<path d="M133.019 26.5908C131.98 26.5908 131.116 27.0278 130.604 28.0382V26.741H129.929V33.568H130.604V29.9634C130.604 28.1201 131.643 27.2462 132.965 27.2462C134.234 27.2462 134.949 28.0655 134.949 29.3216V33.568H135.637V29.3216C135.637 27.6695 134.625 26.5908 133.019 26.5908Z" fill="black"/>
<path d="M141 27.4101V26.741H138.989V24.8295L138.301 25.0343V26.741H136.817V27.4101H138.301V31.8476C138.301 33.4042 139.232 33.8411 141 33.568V32.9536C139.624 33.0765 138.989 33.0492 138.989 31.8476V27.4101H141Z" fill="black"/>
<path d="M16.1302 19.8846H10.568L4.97811 11.1799V19.8846H0V0.41716H4.97811V8.59349L10.2899 0.41716H15.8521L9.67811 9.87278L16.1302 19.8846Z" fill="white"/>
<path d="M27.6955 19.8846L24.3026 13.5994H22.5227V19.8846H17.5446V0.41716H25.3316C27.3154 0.41716 28.9748 1.0568 30.3097 2.33609C31.6632 3.59684 32.3399 5.20059 32.3399 7.14734C32.3399 8.31539 32.0432 9.39073 31.4499 10.3734C30.8566 11.3375 30.0501 12.1069 29.0304 12.6817L33.0351 19.8846H27.6955ZM22.5227 5.00592V9.37219H25.276C25.8878 9.39073 26.3884 9.19606 26.7778 8.78817C27.1671 8.38028 27.3618 7.85187 27.3618 7.20296C27.3618 6.55404 27.1671 6.02564 26.7778 5.61775C26.3884 5.20986 25.8878 5.00592 25.276 5.00592H22.5227Z" fill="white"/>
<path d="M51.2053 17.3817C49.24 19.3284 46.8297 20.3018 43.9745 20.3018C41.1193 20.3018 38.6998 19.3284 36.7159 17.3817C34.7506 15.4164 33.768 13.0061 33.768 10.1509C33.768 7.29566 34.7506 4.89467 36.7159 2.94793C38.6998 0.982643 41.1193 0 43.9745 0C46.8297 0 49.24 0.982643 51.2053 2.94793C53.1891 4.89467 54.181 7.29566 54.181 10.1509C54.181 13.0061 53.1891 15.4164 51.2053 17.3817ZM40.2201 13.9609C41.2213 14.9436 42.4727 15.4349 43.9745 15.4349C45.4763 15.4349 46.7278 14.9436 47.7289 13.9609C48.7301 12.9598 49.2307 11.6897 49.2307 10.1509C49.2307 8.61203 48.7301 7.35128 47.7289 6.36864C46.7278 5.36746 45.4763 4.86686 43.9745 4.86686C42.4727 4.86686 41.2213 5.36746 40.2201 6.36864C39.2189 7.35128 38.7183 8.61203 38.7183 10.1509C38.7183 11.6897 39.2189 12.9598 40.2201 13.9609Z" fill="white"/>
<path d="M65.8904 20.3018C62.961 20.3018 60.5322 19.3377 58.604 17.4095C56.6943 15.4627 55.7395 13.0432 55.7395 10.1509C55.7395 7.25858 56.6943 4.84832 58.604 2.92012C60.5322 0.973373 62.961 0 65.8904 0C67.6517 0 69.2833 0.41716 70.7851 1.25148C72.2868 2.0858 73.4641 3.2075 74.317 4.61657L70.0064 7.09172C69.6356 6.40572 69.0793 5.86805 68.3377 5.4787C67.6146 5.07081 66.7989 4.86686 65.8904 4.86686C64.333 4.86686 63.0722 5.35819 62.1081 6.34083C61.1626 7.30493 60.6898 8.57495 60.6898 10.1509C60.6898 11.7268 61.1626 13.0061 62.1081 13.9888C63.0722 14.9529 64.333 15.4349 65.8904 15.4349C66.7989 15.4349 67.6146 15.2402 68.3377 14.8509C69.0793 14.443 69.6356 13.8868 70.0064 13.1822L74.317 15.6852C73.4641 17.1128 72.2868 18.2438 70.7851 19.0781C69.3018 19.8939 67.6703 20.3018 65.8904 20.3018Z" fill="white"/>
<path d="M92.2292 19.8846H86.6671L81.0772 11.1799V19.8846H76.0991V0.41716H81.0772V8.59349L86.389 0.41716H91.9511L85.7772 9.87278L92.2292 19.8846Z" fill="white"/>
<path d="M93.2265 23.5834H105.102V22.2485H93.2265V23.5834Z" fill="white"/>
<path d="M115.665 0.41716C118.354 0.41716 120.597 1.35345 122.395 3.22604C124.212 5.08008 125.121 7.38836 125.121 10.1509C125.121 12.9134 124.212 15.231 122.395 17.1036C120.597 18.9576 118.354 19.8846 115.665 19.8846H107.739V0.41716H115.665ZM115.665 15.0734C117.019 15.0734 118.122 14.6284 118.975 13.7385C119.827 12.83 120.254 11.6341 120.254 10.1509C120.254 8.66765 119.827 7.48107 118.975 6.59113C118.122 5.68264 117.019 5.2284 115.665 5.2284H112.856V15.0734H115.665Z" fill="white"/>
<path d="M133.594 20.3018C131.536 20.3018 129.83 19.8661 128.477 18.9947C127.123 18.1233 126.178 16.946 125.64 15.4627L129.895 12.9876C130.618 14.7118 131.897 15.574 133.733 15.574C135.253 15.574 136.013 15.1383 136.013 14.2669C136.013 13.6921 135.577 13.2286 134.706 12.8763C134.335 12.728 133.52 12.4777 132.259 12.1254C130.479 11.6063 129.07 10.8832 128.032 9.95621C126.993 9.01065 126.474 7.70355 126.474 6.03491C126.474 4.23649 127.114 2.78107 128.393 1.66864C129.691 0.556213 131.304 0 133.232 0C134.864 0 136.31 0.380079 137.571 1.14024C138.831 1.9004 139.795 3.00355 140.463 4.4497L136.291 6.89704C135.679 5.45089 134.669 4.72781 133.26 4.72781C132.667 4.72781 132.212 4.84832 131.897 5.08935C131.601 5.33037 131.452 5.63629 131.452 6.0071C131.452 6.43353 131.675 6.79507 132.12 7.09172C132.583 7.38836 133.473 7.73136 134.79 8.12071C135.735 8.39882 136.495 8.65838 137.07 8.89941C137.645 9.14043 138.275 9.4927 138.961 9.95621C139.647 10.4012 140.157 10.9852 140.491 11.7083C140.824 12.4128 140.991 13.2471 140.991 14.2112C140.991 16.1209 140.315 17.6134 138.961 18.6888C137.608 19.7641 135.819 20.3018 133.594 20.3018Z" fill="white"/>
</svg>

<svg width="141" height="37" fill="none" xmlns="http://www.w3.org/2000/svg"><path d="M3.578 24.01H.028v9.558h3.55c2.604 0 4.453-2.144 4.453-4.779S6.18 24.01 3.578 24.01zm0 8.875H.744v-8.192h2.834c2.226 0 3.75 1.83 3.75 4.096 0 2.267-1.524 4.096-3.75 4.096zm9.156-6.295c-2.065 0-3.495 1.557-3.495 3.564 0 2.062 1.47 3.564 3.549 3.564 1.336 0 2.388-.614 2.942-1.543l-.594-.355c-.391.724-1.228 1.243-2.334 1.243-1.539 0-2.7-1.01-2.861-2.554h6.112c0-.109.014-.218.014-.327 0-1.87-1.282-3.591-3.333-3.591zm0 .656c1.322 0 2.483.929 2.631 2.595H9.941c.135-1.516 1.255-2.595 2.793-2.595zm5.106 1.284c0-.82.741-1.284 1.618-1.284.743 0 1.444.328 1.728 1.038l.566-.328c-.364-.833-1.2-1.365-2.294-1.365-1.376 0-2.293.86-2.293 1.939 0 2.457 4.088 1.392 4.088 3.25 0 .86-.796 1.283-1.74 1.283-1.013 0-1.741-.464-1.984-1.202l-.58.342c.323.873 1.214 1.515 2.563 1.515 1.444 0 2.416-.819 2.416-1.939 0-2.498-4.089-1.42-4.089-3.25zm5.992-3.441c.297 0 .54-.246.54-.546a.542.542 0 00-.54-.533.542.542 0 00-.54.533c0 .3.243.546.54.546zm-.337 8.479h.674v-6.827h-.674v6.827zm8.745-6.827v1.584c-.553-1.052-1.592-1.734-2.901-1.734-1.93 0-3.495 1.543-3.495 3.563 0 2.021 1.565 3.564 3.495 3.564 1.309 0 2.348-.683 2.901-1.734v1.256c0 1.557-.999 2.554-2.685 2.554-1.485 0-2.24-.601-2.591-1.325l-.594.342c.486.996 1.606 1.638 3.185 1.638 1.862 0 3.36-1.16 3.36-3.209v-6.499h-.675zm-2.86 6.322c-1.606 0-2.861-1.284-2.861-2.909 0-1.624 1.255-2.908 2.86-2.908 1.606 0 2.861 1.284 2.861 2.909 0 1.624-1.255 2.908-2.86 2.908zm8.709-6.473c-1.04 0-1.903.438-2.416 1.448v-1.297H35v6.827h.674v-3.605c0-1.843 1.04-2.717 2.362-2.717 1.268 0 1.983.82 1.983 2.076v4.246h.688v-4.246c0-1.652-1.012-2.731-2.617-2.731zm15.559 6.719l-1.296-1.38c.351-.6.58-1.31.702-2.061l-.634-.369c-.095.751-.297 1.393-.567 1.898l-2.955-3.127c-.58-.6-1.026-1.147-1.026-1.925 0-1.051.837-1.789 1.957-1.789.958 0 1.74.56 2.024 1.461l.594-.355c-.405-1.133-1.444-1.802-2.632-1.802-1.403 0-2.671.942-2.671 2.512 0 .806.324 1.366.755 1.871-1.228.546-1.875 1.598-1.875 2.785 0 1.653 1.214 2.69 3.076 2.69 1.255 0 2.186-.464 2.82-1.201l1.093 1.16.635-.368zm-4.575-.287c-1.416 0-2.32-.751-2.32-2.007 0-.874.458-1.789 1.646-2.24l3.036 3.223c-.594.683-1.404 1.024-2.362 1.024zm13.263-9.012h-3.549v9.558h3.549c2.604 0 4.453-2.144 4.453-4.779s-1.849-4.779-4.453-4.779zm0 8.875h-2.834v-8.192h2.834c2.226 0 3.751 1.83 3.751 4.096 0 2.267-1.525 4.096-3.751 4.096zm9.156-6.295c-2.064 0-3.495 1.557-3.495 3.564 0 2.062 1.471 3.564 3.55 3.564 1.335 0 2.388-.614 2.94-1.543l-.593-.355c-.391.724-1.228 1.243-2.334 1.243-1.538 0-2.699-1.01-2.86-2.554h6.112c0-.109.013-.218.013-.327 0-1.87-1.282-3.591-3.333-3.591zm0 .656c1.323 0 2.483.929 2.632 2.595h-5.425c.135-1.516 1.255-2.595 2.793-2.595zm9.598-.505l-2.55 6.117-2.536-6.117h-.729l2.86 6.827h.824l2.847-6.827h-.715zm4.713-.151c-2.064 0-3.495 1.557-3.495 3.564 0 2.062 1.471 3.564 3.549 3.564 1.336 0 2.388-.614 2.942-1.543l-.594-.355c-.391.724-1.228 1.243-2.334 1.243-1.539 0-2.7-1.01-2.861-2.554h6.112c0-.109.014-.218.014-.327 0-1.87-1.282-3.591-3.333-3.591zm0 .656c1.322 0 2.483.929 2.631 2.595H83.01c.135-1.516 1.255-2.595 2.793-2.595zm4.91 6.322h.675v-9.967h-.675v9.967zm5.844.15c1.957 0 3.535-1.543 3.535-3.564 0-2.02-1.578-3.563-3.535-3.563-1.97 0-3.549 1.543-3.549 3.563 0 2.021 1.579 3.564 3.55 3.564zm0-.655c-1.606 0-2.86-1.284-2.86-2.909 0-1.624 1.254-2.908 2.86-2.908 1.606 0 2.847 1.284 2.847 2.909 0 1.624-1.241 2.908-2.847 2.908zm8.735-6.473c-1.309 0-2.348.683-2.901 1.735V26.74h-.675v9.558h.675v-4.315c.553 1.051 1.592 1.734 2.901 1.734 1.93 0 3.495-1.543 3.495-3.564 0-2.02-1.565-3.563-3.495-3.563zm-.041 6.473c-1.605 0-2.86-1.284-2.86-2.909 0-1.624 1.255-2.908 2.86-2.908 1.606 0 2.861 1.284 2.861 2.909 0 1.624-1.255 2.908-2.861 2.908zm12.368-6.473c-.904 0-1.768.438-2.254 1.393-.35-.9-1.12-1.392-2.105-1.392-.863 0-1.673.382-2.172 1.324v-1.174h-.675v6.827h.675v-3.81c0-1.747.985-2.512 2.091-2.512 1.039 0 1.728.697 1.728 1.994v4.328h.674v-3.81c0-1.747.891-2.512 2.024-2.512 1.053 0 1.795.697 1.795 1.994v4.328h.675V29.24c0-1.707-1.026-2.65-2.456-2.65zm7.4 0c-2.064 0-3.495 1.557-3.495 3.564 0 2.062 1.471 3.564 3.549 3.564 1.336 0 2.389-.614 2.942-1.543l-.594-.355c-.391.724-1.228 1.243-2.334 1.243-1.539 0-2.699-1.01-2.861-2.554h6.113c0-.109.013-.218.013-.327 0-1.87-1.282-3.591-3.333-3.591zm0 .656c1.323 0 2.483.929 2.631 2.595h-5.424c.135-1.516 1.255-2.595 2.793-2.595zm8-.656c-1.039 0-1.902.438-2.415 1.448v-1.297h-.675v6.827h.675v-3.605c0-1.843 1.039-2.717 2.361-2.717 1.269 0 1.984.82 1.984 2.076v4.246h.688v-4.246c0-1.652-1.012-2.731-2.618-2.731zm7.981.82v-.669h-2.011v-1.912l-.688.205v1.707h-1.484v.67h1.484v4.437c0 1.556.931 1.993 2.699 1.72v-.614c-1.376.123-2.011.095-2.011-1.106V27.41H141zM16.13 19.885h-5.562l-5.59-8.705v8.705H0V.417h4.978v8.176L10.29.417h5.562L9.678 9.873l6.452 10.012zm11.565 0l-3.392-6.286h-1.78v6.286h-4.978V.417h7.787c1.983 0 3.643.64 4.978 1.92 1.353 1.26 2.03 2.864 2.03 4.81a6.126 6.126 0 01-.89 3.226 6.579 6.579 0 01-2.42 2.309l4.005 7.203h-5.34zm-5.172-14.88v4.367h2.753c.612.019 1.112-.176 1.502-.584.39-.408.584-.936.584-1.585 0-.649-.195-1.177-.584-1.585-.39-.408-.89-.612-1.502-.612h-2.753zm28.682 12.377c-1.965 1.946-4.375 2.92-7.23 2.92-2.856 0-5.275-.974-7.26-2.92-1.964-1.966-2.947-4.376-2.947-7.231 0-2.855.983-5.256 2.948-7.203C38.7.983 41.119 0 43.974 0c2.856 0 5.266.983 7.231 2.948 1.984 1.947 2.976 4.348 2.976 7.203 0 2.855-.992 5.265-2.976 7.23zM40.22 13.96c1.001.983 2.253 1.474 3.755 1.474 1.501 0 2.753-.491 3.754-1.474 1.001-1.001 1.502-2.271 1.502-3.81 0-1.539-.5-2.8-1.502-3.782-1.001-1.002-2.253-1.502-3.755-1.502-1.501 0-2.753.5-3.754 1.502-1.001.982-1.502 2.243-1.502 3.782 0 1.539.5 2.809 1.502 3.81zm25.67 6.342c-2.929 0-5.358-.964-7.286-2.892-1.91-1.947-2.864-4.367-2.864-7.26 0-2.891.954-5.302 2.864-7.23C60.532.973 62.961 0 65.89 0c1.762 0 3.393.417 4.895 1.251 1.502.835 2.68 1.957 3.532 3.366l-4.31 2.475c-.371-.686-.928-1.224-1.67-1.613-.722-.408-1.538-.612-2.447-.612-1.557 0-2.818.491-3.782 1.474-.945.964-1.418 2.234-1.418 3.81s.473 2.855 1.418 3.838c.964.964 2.225 1.446 3.782 1.446.909 0 1.725-.195 2.448-.584.741-.408 1.298-.964 1.668-1.669l4.311 2.503c-.853 1.428-2.03 2.559-3.532 3.393-1.483.816-3.115 1.224-4.895 1.224zm26.34-.417h-5.563l-5.59-8.705v8.705H76.1V.417h4.978v8.176L86.39.417h5.562l-6.174 9.456 6.452 10.012zm.997 3.698h11.875V22.25H93.226v1.334zM115.665.417c2.689 0 4.932.936 6.73 2.809 1.817 1.854 2.726 4.162 2.726 6.925 0 2.762-.909 5.08-2.726 6.953-1.798 1.854-4.041 2.78-6.73 2.78h-7.926V.418h7.926zm0 14.656c1.354 0 2.457-.445 3.31-1.335.852-.908 1.279-2.104 1.279-3.587s-.427-2.67-1.279-3.56c-.853-.908-1.956-1.363-3.31-1.363h-2.809v9.845h2.809zm17.929 5.229c-2.058 0-3.764-.436-5.117-1.307-1.354-.872-2.299-2.049-2.837-3.532l4.255-2.475c.723 1.724 2.002 2.586 3.838 2.586 1.52 0 2.28-.436 2.28-1.307 0-.575-.436-1.038-1.307-1.39-.371-.149-1.186-.4-2.447-.752-1.78-.519-3.189-1.242-4.227-2.169-1.039-.945-1.558-2.252-1.558-3.921 0-1.799.64-3.254 1.919-4.366C129.691.556 131.304 0 133.232 0c1.632 0 3.078.38 4.339 1.14 1.26.76 2.224 1.864 2.892 3.31l-4.172 2.447c-.612-1.446-1.622-2.17-3.031-2.17-.593 0-1.048.121-1.363.362a1.134 1.134 0 00-.445.918c0 .427.223.788.668 1.085.463.296 1.353.64 2.67 1.029.945.278 1.705.537 2.28.778.575.241 1.205.594 1.891 1.057a4.11 4.11 0 011.53 1.752c.333.705.5 1.54.5 2.503 0 1.91-.676 3.402-2.03 4.478-1.353 1.075-3.142 1.613-5.367 1.613z" fill="#fff"/></svg>
